styles/images/svg/github.svg

<svg xmlns="http://www.w3.org/2000/svg" style="isolation:isolate" width="24" height="24"><defs><clipPath id="a"><path d="M0 0h24v24H0z"/></clipPath></defs><g clip-path="url(#a)"><path d="M12 2a9.51 9.51 0 0 0-9.513 9.513 9.507 9.507 0 0 0 6.505 9.025c.475.083.654-.202.654-.452 0-.226-.012-.975-.012-1.772-2.39.44-3.009-.582-3.199-1.118-.107-.273-.571-1.117-.975-1.343-.333-.179-.809-.619-.012-.63.749-.012 1.284.689 1.463.975.856 1.438 2.223 1.034 2.77.784.084-.618.333-1.034.607-1.272-2.117-.238-4.329-1.058-4.329-4.697a3.7 3.7 0 0 1 .976-2.556c-.096-.238-.429-1.213.095-2.521 0 0 .796-.25 2.616.975a8.825 8.825 0 0 1 2.378-.321 8.83 8.83 0 0 1 2.378.321c1.819-1.237 2.616-.975 2.616-.975.523 1.308.19 2.283.095 2.521.606.666.975 1.51.975 2.556 0 3.651-2.223 4.459-4.34 4.697.345.297.642.868.642 1.76 0 1.272-.012 2.295-.012 2.616 0 .25.179.547.654.452a9.528 9.528 0 0 0 6.481-9.025A9.51 9.51 0 0 0 12 2z" fill-rule="evenodd" fill="#FFF"/></g></svg>

<svg xmlns="http://www.w3.org/2000/svg" style="isolation:isolate" width="24" height="24"><path fill="currentColor" xmlns="http://www.w3.org/2000/svg" d=" M 12 2 C 9.477 1.999 7.057 3.001 5.272 4.785 C 3.488 6.57 2.486 8.99 2.487 11.513 C 2.485 15.608 5.106 19.245 8.992 20.538 C 9.467 20.621 9.646 20.336 9.646 20.086 C 9.646 19.86 9.634 19.111 9.634 18.314 C 7.244 18.754 6.625 17.732 6.435 17.196 C 6.328 16.923 5.864 16.079 5.46 15.853 C 5.127 15.674 4.651 15.234 5.448 15.223 C 6.197 15.211 6.732 15.912 6.911 16.198 C 7.767 17.636 9.134 17.232 9.681 16.982 C 9.765 16.364 10.014 15.948 10.288 15.71 C 8.171 15.472 5.959 14.652 5.959 11.013 C 5.946 10.068 6.295 9.153 6.935 8.457 C 6.839 8.219 6.506 7.244 7.03 5.936 C 7.03 5.936 7.826 5.686 9.646 6.911 C 10.42 6.696 11.22 6.588 12.024 6.59 C 12.828 6.588 13.628 6.696 14.402 6.911 C 16.221 5.674 17.018 5.936 17.018 5.936 C 17.541 7.244 17.208 8.219 17.113 8.457 C 17.719 9.123 18.088 9.967 18.088 11.013 C 18.088 14.664 15.865 15.472 13.748 15.71 C 14.093 16.007 14.39 16.578 14.39 17.47 C 14.39 18.742 14.378 19.765 14.378 20.086 C 14.378 20.336 14.557 20.633 15.032 20.538 C 18.904 19.231 21.512 15.6 21.513 11.513 C 21.514 8.99 20.512 6.57 18.728 4.785 C 16.943 3.001 14.523 1.999 12 2 L 12 2 Z " fill-rule="evenodd"/></svg>
